lib/svgs/team-compass.svg

<?xml version="1.0" encoding="UTF-8"?>
<svg width="16px" height="16px" viewBox="0 0 16 16" version="1.1" xmlns="http://www.w3.org/2000/svg" xmlns:xlink="http://www.w3.org/1999/xlink">
    <!-- Generator: sketchtool 51.3 (57544) - http://www.bohemiancoding.com/sketch -->
    <title>team/team-compass</title>
    <desc>Created with sketchtool.</desc>
    <defs></defs>
    <g id="Icons" stroke="none" stroke-width="1" fill="none" fill-rule="evenodd">
        <g id="Web" transform="translate(-99.000000, -2394.000000)" fill="#000000">
            <g id="team/team-compass" transform="translate(99.000000, 2394.000000)">
                <path d="M8,0 C3.5888,0 0,3.5888 0,8 C0,12.4112 3.5888,16 8,16 C12.4112,16 16,12.4112 16,8 C16,3.5888 12.4112,0 8,0 L8,0 L8,0 M11.5444,5.0184 L9.2612,9.2664 L5.0212,11.5536 C4.6532,11.752 4.2524,11.3508 4.4504,10.982 L6.7336,6.734 L10.974,4.4468 C11.3416,4.2484 11.7428,4.65 11.5444,5.0184 L11.5444,5.0184 L11.5444,5.0184 M8.4,14.8 C8.4,15.0208 8.2212,15.2 8,15.2 C7.7788,15.2 7.6,15.0208 7.6,14.8 L7.6,13.6 C7.6,13.3792 7.7788,13.2 8,13.2 C8.2212,13.2 8.4,13.3792 8.4,13.6 L8.4,14.8 L8.4,14.8 L8.4,14.8 M2.4,8.4 L1.2,8.4 C0.9788,8.4 0.8,8.2208 0.8,8 C0.8,7.7792 0.9788,7.6 1.2,7.6 L2.4,7.6 C2.6212,7.6 2.8,7.7792 2.8,8 C2.8,8.2208 2.6212,8.4 2.4,8.4 L2.4,8.4 L2.4,8.4 M7.6,1.2 C7.6,0.9792 7.7788,0.8 8,0.8 C8.2212,0.8 8.4,0.9792 8.4,1.2 L8.4,2.4 C8.4,2.6208 8.2212,2.8 8,2.8 C7.7788,2.8 7.6,2.6208 7.6,2.4 L7.6,1.2 L7.6,1.2 L7.6,1.2 M14.8,8.4 L13.6,8.4 C13.3788,8.4 13.2,8.2208 13.2,8 C13.2,7.7792 13.3788,7.6 13.6,7.6 L14.8,7.6 C15.0212,7.6 15.2,7.7792 15.2,8 C15.2,8.2208 15.0212,8.4 14.8,8.4 L14.8,8.4 L14.8,8.4" id="Shape"></path>
            </g>
        </g>
    </g>
</svg>

<svg xmlns="http://www.w3.org/2000/svg" viewBox="0 0 16 16">
    <path d="M8 0a8.01 8.01 0 0 0-8 8c0 4.411 3.589 8 8 8s8-3.589 8-8-3.589-8-8-8m3.544 5.018L9.261 9.266l-4.24 2.288c-.368.198-.769-.203-.57-.572l2.283-4.248 4.24-2.287c.368-.199.769.203.57.571M8.4 14.8a.4.4 0 1 1-.8 0v-1.2a.4.4 0 1 1 .8 0v1.2m-6-6.4H1.2a.4.4 0 1 1 0-.8h1.2a.4.4 0 1 1 0 .8m5.2-7.2a.4.4 0 1 1 .8 0v1.2a.4.4 0 1 1-.8 0V1.2m7.2 7.2h-1.2a.4.4 0 1 1 0-.8h1.2a.4.4 0 1 1 0 .8"/>
</svg>
